X: 10233
T: REEL OF TULLOCH
R: reel
B: K\"ohler's Violin Repository, v.1, 1885 p.32 #3
F: http://www.archive.org/details/klersviolinrepos01edin
Z: 2011 John Chambers <jc:trillian.mit.edu>
M: C|
L: 1/8
K: Amix
|: ve2Ac (ec)Aa | e2Ac (dB)GB | e2Ac (eA)cA | (BE)Be (dB)GB :|
|: v(cB)ce (cA)AB | (cB)ce (dB)GB | (cB)ce (cA)cA | (BE)Be | (dB)GB :|

%%sep 2 1 500

